Origami/22x22/apps/pattern-mate.svg

<svg width="22" height="22" version="1.1" viewBox="0 0 22 22" xmlns="http://www.w3.org/2000/svg">
 <circle cx="11" cy="11" r="10" style="fill:#7ea043"/>
 <path d="m11 1a10 10 0 0 0 -10 10 10 10 0 0 0 0.01075 0.291 10 10 0 0 1 9.989 -9.791 10 10 0 0 1 9.9895 9.709 10 10 0 0 0 0.0105 -0.209 10 10 0 0 0 -10 -10z" style="fill:#ffffff;opacity:.2"/>
 <path d="M 20.9895,11.209 A 10,10 0 0 1 11,21 10,10 0 0 1 1.011,11.291 10,10 0 0 0 1,11.5 a 10,10 0 0 0 10,10 10,10 0 0 0 10,-10 10,10 0 0 0 -0.011,-0.291 z" style="opacity:.2"/>
 <path d="m10.29454 17.98257c-1.1155092-0.076123-2.1725938-0.452517-3.1674619-1.127839-0.5466737-0.371084-1.4302154-1.241092-1.4302154-1.408306 0-0.09411 0.083145-0.169173 0.4294671-0.387694 0.236207-0.149042 0.4571611-0.270986 0.4910102-0.270986 0.033866 0 0.2752188 0.205087 0.5363706 0.455748 0.7120485 0.683442 1.4256861 1.088226 2.3742862 1.34673 0.358613 0.09772 0.5223032 0.111963 1.2836952 0.111711 0.80423-2.92e-4 0.910699-0.01089 1.357492-0.134671 3.126238-0.866495 4.743601-4.282771 3.421302-7.2266546-0.586114-1.3048958-1.770669-2.3691284-3.13041-2.8124401-1.957067-0.638054-4.0789478-0.099311-5.4905156 1.3940223-0.1666311 0.176282-0.3250021 0.320512-0.3519347 0.320512-0.063233 0-0.8860242-0.529069-0.9297589-0.597849-0.057685-0.09072 0.1150902-0.3161951 0.6150197-0.8026124 0.7608029-0.7402398 1.5346291-1.2106685 2.5252757-1.5351809 1.2601718-0.4128012 2.7371878-0.4092024 3.9955278 0.00969 2.298916 0.765372 3.99703 2.7570653 4.390246 5.1492657 0.09987 0.607575 0.07389 1.812044-0.05142 2.382415-0.310287 1.412532-1.095217 2.726569-2.157147 3.611237-1.362917 1.135413-2.936085 1.643967-4.710832 1.522859zm-6.29454-6.510642c0-2.3093736 0.016365-4.1984569 0.036357-4.1979617 0.063814 0.00159 7.051228 4.1426517 7.058879 4.1834257 0.0061 0.03236-6.8438196 4.111103-7.0346374 4.188743-0.048206 0.01962-0.060602-0.834286-0.060602-4.174207zm6.229912 4.042039c-0.4566032-0.069363-1.0516822-0.279967-1.4501123-0.513198-0.4180874-0.244739-0.9982183-0.763847-0.9982183-0.893218 0-0.09891 0.7898703-0.628279 0.9379564-0.628613 0.049237-9.8e-5 0.1846263 0.08351 0.300859 0.185825 0.906597 0.798019 2.3462882 0.86353 3.3583062 0.152818 0.749107-0.526077 1.1854-1.365189 1.182365-2.274015-0.0026-0.808831-0.251537-1.418491-0.805252-1.9728948-0.677697-0.6785496-1.602345-0.9666916-2.493334-0.7769856-0.4485792 0.09552-0.7765472 0.2468968-1.1543042 0.5328168-0.163651 0.12387-0.3309448 0.2252088-0.3717685 0.2252088-0.040824 0-0.2723627-0.1236048-0.5145271-0.2746728-0.5658514-0.3529968-0.5686084-0.3877638-0.064567-0.8143538 0.4253004-0.35995 1.1656398-0.749156 1.6605028-0.872952 1.640392-0.4103611 3.397962 0.27502 4.336797 1.6911818 0.479601 0.7234306 0.682313 1.4125206 0.671549 2.2827916-0.0081 0.657889-0.125132 1.141258-0.422462 1.745414-0.243768 0.49531-0.648294 1.003783-1.072648 1.348263-0.35064 0.284646-1.14131 0.675638-1.580878 0.781757-0.40168 0.09696-1.136437 0.133137-1.520264 0.07483z" style="opacity:.2"/>
 <path d="m10.294544 17.482569c-1.1155091-0.076123-2.1725939-0.452517-3.167462-1.127839-0.5466737-0.371084-1.4302154-1.241092-1.4302154-1.408306 0-0.09411 0.083145-0.169173 0.4294671-0.387694 0.236207-0.149042 0.4571611-0.270986 0.4910102-0.270986 0.033866 0 0.2752188 0.205087 0.5363706 0.455748 0.7120485 0.683442 1.4256861 1.088226 2.3742864 1.34673 0.3586127 0.09772 0.5223031 0.111963 1.2836951 0.111711 0.80423-2.92e-4 0.910699-0.01089 1.357492-0.134671 3.126238-0.866495 4.743601-4.282771 3.421302-7.2266545-0.586114-1.3048961-1.770669-2.3691287-3.13041-2.8124404-1.957067-0.6380541-4.0789479-0.0993114-5.4905157 1.3940223-0.1666311 0.1762817-0.3250021 0.3205122-0.3519347 0.3205122-0.0632327 0-0.8860242-0.5290689-0.9297589-0.5978488-0.0576846-0.0907224 0.1150902-0.3161955 0.6150197-0.8026128 0.7608029-0.7402398 1.5346291-1.2106686 2.5252757-1.535181 1.2601719-0.4128012 2.7371879-0.4092024 3.9955279 0.00969 2.298916 0.7653721 3.99703 2.7570652 4.390246 5.1492662 0.09987 0.6075748 0.07389 1.8120438-0.05142 2.3824148-0.310287 1.412532-1.095217 2.726569-2.157147 3.611237-1.362917 1.135413-2.936085 1.643967-4.710832 1.522859zm-6.2945401-6.510642c0-2.309374 0.016365-4.1984571 0.036357-4.1979619 0.063814 0.00159 7.0512281 4.1426519 7.0588791 4.1834259 0.0061 0.03236-6.8438197 4.111103-7.0346375 4.188743-0.0482056 0.019617-0.0606025-0.834286-0.0606025-4.174207zm6.2299121 4.042039c-0.456603-0.069363-1.0516827-0.279967-1.4501124-0.513198-0.4180874-0.244739-0.9982183-0.763847-0.9982183-0.893218 0-0.09891 0.7898703-0.628279 0.9379564-0.628613 0.049237-9.8e-5 0.1846263 0.08351 0.3008591 0.185825 0.9065973 0.798019 2.3462882 0.86353 3.3583062 0.152818 0.749107-0.526077 1.1854-1.365189 1.182365-2.274015-0.002554-0.808831-0.251537-1.4184908-0.805252-1.9728951-0.677697-0.6785491-1.602345-0.9666913-2.493334-0.7769853-0.4485796 0.0955198-0.776547 0.2468963-1.1543046 0.5328165-0.1636507 0.1238704-0.3309445 0.2252088-0.3717682 0.2252088-0.040824 0-0.2723627-0.1236049-0.5145271-0.274673-0.5658514-0.3529964-0.5686084-0.387764-0.0645672-0.8143539 0.4253004-0.3599495 1.1656401-0.7491552 1.6605024-0.8729513 1.6403927-0.4103614 3.3979627 0.2750199 4.3367977 1.6911815 0.479601 0.723431 0.682313 1.4125208 0.671549 2.2827918-0.0081 0.657889-0.125132 1.141258-0.422462 1.745414-0.243768 0.49531-0.648294 1.003783-1.072648 1.348263-0.35064 0.284646-1.14131 0.675638-1.580878 0.781757-0.40168 0.09696-1.136437 0.133137-1.520264 0.07483z" style="fill:#ffffff"/>
</svg>

<?xml version="1.0" encoding="UTF-8" standalone="no"?>
<svg
   xmlns:dc="http://purl.org/dc/elements/1.1/"
   xmlns:cc="http://creativecommons.org/ns#"
   xmlns:rdf="http://www.w3.org/1999/02/22-rdf-syntax-ns#"
   xmlns:svg="http://www.w3.org/2000/svg"
   xmlns="http://www.w3.org/2000/svg"
   xmlns:sodipodi="http://sodipodi.sourceforge.net/DTD/sodipodi-0.dtd"
   xmlns:inkscape="http://www.inkscape.org/namespaces/inkscape"
   width="22"
   height="22"
   version="1.1"
   viewBox="0 0 22 22"
   id="svg12"
   sodipodi:docname="pattern-mate.svg"
   inkscape:version="0.92.2 5c3e80d, 2017-08-06">
  <metadata
     id="metadata18">
    <rdf:RDF>
      <cc:Work
         rdf:about="">
        <dc:format>image/svg+xml</dc:format>
        <dc:type
           rdf:resource="http://purl.org/dc/dcmitype/StillImage" />
      </cc:Work>
    </rdf:RDF>
  </metadata>
  <defs
     id="defs16" />
  <sodipodi:namedview
     pagecolor="#ffffff"
     bordercolor="#666666"
     borderopacity="1"
     objecttolerance="10"
     gridtolerance="10"
     guidetolerance="10"
     inkscape:pageopacity="0"
     inkscape:pageshadow="2"
     inkscape:window-width="1366"
     inkscape:window-height="713"
     id="namedview14"
     showgrid="false"
     inkscape:zoom="7.5853273"
     inkscape:cx="1.872068"
     inkscape:cy="14.262517"
     inkscape:window-x="0"
     inkscape:window-y="27"
     inkscape:window-maximized="1"
     inkscape:current-layer="svg12" />
  <circle
     style="fill:#7ea043"
     cx="11"
     cy="11"
     r="10"
     id="circle2" />
  <path
     style="opacity:0.2;fill:#ffffff"
     d="m 11,1 a 10,10 0 0 0 -10,10 10,10 0 0 0 0.01075,0.291 10,10 0 0 1 9.989,-9.791 10,10 0 0 1 9.9895,9.709 10,10 0 0 0 0.0105,-0.209 10,10 0 0 0 -10,-10 z"
     id="path4" />
  <path
     style="opacity:0.2"
     d="M 20.9895,11.209 A 10,10 0 0 1 11,21 10,10 0 0 1 1.011,11.291 10,10 0 0 0 1,11.5 a 10,10 0 0 0 10,10 10,10 0 0 0 10,-10 10,10 0 0 0 -0.011,-0.291 z"
     id="path6" />
  <path
     style="opacity:0.2;fill:#000000;fill-opacity:1;stroke-width:0.0484818"
     d="M 10.29454,17.98257 C 9.1790308,17.906447 8.1219462,17.530053 7.1270781,16.854731 6.5804044,16.483647 5.6968627,15.613639 5.6968627,15.446425 c 0,-0.09411 0.083145,-0.169173 0.4294671,-0.387694 0.236207,-0.149042 0.4571611,-0.270986 0.4910102,-0.270986 0.033866,0 0.2752188,0.205087 0.5363706,0.455748 0.7120485,0.683442 1.4256861,1.088226 2.3742862,1.34673 0.358613,0.09772 0.5223032,0.111963 1.2836952,0.111711 0.80423,-2.92e-4 0.910699,-0.01089 1.357492,-0.134671 3.126238,-0.866495 4.743601,-4.282771 3.421302,-7.2266546 C 15.004372,8.0357126 13.819817,6.97148 12.460076,6.5281683 10.503009,5.8901143 8.3811282,6.4288573 6.9695604,7.9221906 c -0.1666311,0.176282 -0.3250021,0.320512 -0.3519347,0.320512 -0.063233,0 -0.8860242,-0.529069 -0.9297589,-0.597849 C 5.6301818,7.5541336 5.802957,7.3286585 6.3028865,6.8422412 7.0636894,6.1020014 7.8375156,5.6315727 8.8281622,5.3070603 10.088334,4.8942591 11.56535,4.8978579 12.82369,5.3167503 c 2.298916,0.765372 3.99703,2.7570653 4.390246,5.1492657 0.09987,0.607575 0.07389,1.812044 -0.05142,2.382415 -0.310287,1.412532 -1.095217,2.726569 -2.157147,3.611237 -1.362917,1.135413 -2.936085,1.643967 -4.710832,1.522859 z M 4,11.471928 C 4,9.1625544 4.016365,7.2734711 4.036357,7.2739663 c 0.063814,0.00159 7.051228,4.1426517 7.058879,4.1834257 0.0061,0.03236 -6.8438196,4.111103 -7.0346374,4.188743 -0.048206,0.01962 -0.060602,-0.834286 -0.060602,-4.174207 z m 6.229912,4.042039 C 9.7733088,15.444604 9.1782298,15.234 8.7797997,15.000769 8.3617123,14.75603 7.7815814,14.236922 7.7815814,14.107551 c 0,-0.09891 0.7898703,-0.628279 0.9379564,-0.628613 0.049237,-9.8e-5 0.1846263,0.08351 0.300859,0.185825 0.906597,0.798019 2.3462882,0.86353 3.3583062,0.152818 0.749107,-0.526077 1.1854,-1.365189 1.182365,-2.274015 -0.0026,-0.808831 -0.251537,-1.418491 -0.805252,-1.9728948 C 12.078119,8.8921216 11.153471,8.6039796 10.262482,8.7936856 9.8139028,8.8892056 9.4859348,9.0405824 9.1081778,9.3265024 8.9445268,9.4503724 8.777233,9.5517112 8.7364093,9.5517112 8.6955853,9.5517112 8.4640466,9.4281064 8.2218822,9.2770384 7.6560308,8.9240416 7.6532738,8.8892746 8.1573152,8.4626846 8.5826156,8.1027346 9.322955,7.7135286 9.817818,7.5897326 c 1.640392,-0.4103611 3.397962,0.27502 4.336797,1.6911818 0.479601,0.7234306 0.682313,1.4125206 0.671549,2.2827916 -0.0081,0.657889 -0.125132,1.141258 -0.422462,1.745414 -0.243768,0.49531 -0.648294,1.003783 -1.072648,1.348263 -0.35064,0.284646 -1.14131,0.675638 -1.580878,0.781757 -0.40168,0.09696 -1.136437,0.133137 -1.520264,0.07483 z"
     id="path847-3"
     inkscape:connector-curvature="0"
     sodipodi:nodetypes="ssscssscssssscsssssssscccsssscsscsssssssssssss" />
  <path
     style="fill:#ffffff;fill-opacity:1;stroke-width:0.0484818"
     d="M 10.294544,17.482569 C 9.1790349,17.406446 8.1219501,17.030052 7.127082,16.35473 6.5804083,15.983646 5.6968666,15.113638 5.6968666,14.946424 c 0,-0.09411 0.083145,-0.169173 0.4294671,-0.387694 0.236207,-0.149042 0.4571611,-0.270986 0.4910102,-0.270986 0.033866,0 0.2752188,0.205087 0.5363706,0.455748 0.7120485,0.683442 1.4256861,1.088226 2.3742864,1.34673 0.3586127,0.09772 0.5223031,0.111963 1.2836951,0.111711 0.80423,-2.92e-4 0.910699,-0.01089 1.357492,-0.134671 3.126238,-0.866495 4.743601,-4.282771 3.421302,-7.2266545 C 15.004376,7.5357114 13.819821,6.4714788 12.46008,6.0281671 10.503013,5.390113 8.3811321,5.9288557 6.9695643,7.4221894 6.8029332,7.5984711 6.6445622,7.7427016 6.6176296,7.7427016 6.5543969,7.7427016 5.7316054,7.2136327 5.6878707,7.1448528 5.6301861,7.0541304 5.8029609,6.8286573 6.3028904,6.34224 7.0636933,5.6020002 7.8375195,5.1315714 8.8281661,4.807059 10.088338,4.3942578 11.565354,4.3978566 12.823694,4.816749 c 2.298916,0.7653721 3.99703,2.7570652 4.390246,5.1492662 0.09987,0.6075748 0.07389,1.8120438 -0.05142,2.3824148 -0.310287,1.412532 -1.095217,2.726569 -2.157147,3.611237 -1.362917,1.135413 -2.936085,1.643967 -4.710832,1.522859 z M 4.0000039,10.971927 c 0,-2.309374 0.016365,-4.1984571 0.036357,-4.1979619 0.063814,0.00159 7.0512281,4.1426519 7.0588791,4.1834259 0.0061,0.03236 -6.8438197,4.111103 -7.0346375,4.188743 C 4.0123969,15.165751 4,14.311848 4,10.971927 Z m 6.2299121,4.042039 C 9.773313,14.944603 9.1782333,14.733999 8.7798036,14.500768 8.3617162,14.256029 7.7815853,13.736921 7.7815853,13.60755 c 0,-0.09891 0.7898703,-0.628279 0.9379564,-0.628613 0.049237,-9.8e-5 0.1846263,0.08351 0.3008591,0.185825 0.9065973,0.798019 2.3462882,0.86353 3.3583062,0.152818 0.749107,-0.526077 1.1854,-1.365189 1.182365,-2.274015 C 13.558518,10.234734 13.309535,9.6250742 12.75582,9.0706699 12.078123,8.3921208 11.153475,8.1039786 10.262486,8.2936846 9.8139064,8.3892044 9.485939,8.5405809 9.1081814,8.8265011 8.9445307,8.9503715 8.7772369,9.0517099 8.7364132,9.0517099 8.6955892,9.0517099 8.4640505,8.928105 8.2218861,8.7770369 7.6560347,8.4240405 7.6532777,8.3892729 8.1573189,7.962683 8.5826193,7.6027335 9.322959,7.2135278 9.8178213,7.0897317 11.458214,6.6793703 13.215784,7.3647516 14.154619,8.7809132 c 0.479601,0.723431 0.682313,1.4125208 0.671549,2.2827918 -0.0081,0.657889 -0.125132,1.141258 -0.422462,1.745414 -0.243768,0.49531 -0.648294,1.003783 -1.072648,1.348263 -0.35064,0.284646 -1.14131,0.675638 -1.580878,0.781757 -0.40168,0.09696 -1.136437,0.133137 -1.520264,0.07483 z"
     id="path847"
     inkscape:connector-curvature="0"
     sodipodi:nodetypes="ssscssscssssscsssssssscccsssscsscsssssssssssss" />
</svg>
